X: 153
T: A Favorite Dance from Mother Goose
R: slip-jig
M: 9/8
L: 1/8
Z: 2012 John Chambers <jc:trillian.mit.edu>
B: J. Anderson "Budget of Strathspeys, Reels and Country Dances" (Early 1800s) p.15 #3
F: http://imslp.org/wiki/Anderson%27s_Budget_of_Strathspeys,_Reels_and_Country_Dances_(Various)
K: D
|: ABA AFG AdB | ABA AGF BGE | ABA AFG AdA | Bed cde fdd :|
|: fgf fed ecA | fgf fed gee | fed edc dcB | ABA AFG Add :|

%%sep 2 1 500
%%sep 1 1 500

